resources/icons/16px/horizontal-bar-chart.svg

<svg xmlns="http://www.w3.org/2000/svg" viewBox="0 0 16 16">
  <path d="M4 5h7c.55 0 1-.45 1-1V3c0-.55-.45-1-1-1H4c-.55 0-1 .45-1 1v1c0 .55.45 1 1 1M1 1c-.55 0-1 .45-1 1v13c0 .55.45 1 1 1s1-.45 1-1V2c0-.55-.45-1-1-1m14 6H4c-.55 0-1 .45-1 1v1c0 .55.45 1 1 1h11c.55 0 1-.45 1-1V8c0-.55-.45-1-1-1m-6 5H4c-.55 0-1 .45-1 1v1c0 .55.45 1 1 1h5c.55 0 1-.45 1-1v-1c0-.55-.45-1-1-1"/>
</svg>

<?xml version="1.0" encoding="utf-8"?>
<!-- Generator: Adobe Illustrator 18.0.0, SVG Export Plug-In . SVG Version: 6.00 Build 0)  -->
<svg version="1.1" id="Layer_1" xmlns="http://www.w3.org/2000/svg" xmlns:xlink="http://www.w3.org/1999/xlink" x="0px" y="0px"
	 viewBox="0 0 16 16" enable-background="new 0 0 16 16" xml:space="preserve">
<g id="horizontal_bar_chart_1_">
	<g>
		<path fill-rule="evenodd" clip-rule="evenodd" d="M4,5h7c0.55,0,1-0.45,1-1V3c0-0.55-0.45-1-1-1H4C3.45,2,3,2.45,3,3v1
			C3,4.55,3.45,5,4,5z M1,1C0.45,1,0,1.45,0,2v13c0,0.55,0.45,1,1,1s1-0.45,1-1V2C2,1.45,1.55,1,1,1z M15,7H4C3.45,7,3,7.45,3,8v1
			c0,0.55,0.45,1,1,1h11c0.55,0,1-0.45,1-1V8C16,7.45,15.55,7,15,7z M9,12H4c-0.55,0-1,0.45-1,1v1c0,0.55,0.45,1,1,1h5
			c0.55,0,1-0.45,1-1v-1C10,12.45,9.55,12,9,12z"/>
	</g>
</g>
</svg>
